rospo-icon-theme-classic-common/64x64/apps/com.github.keyilan.swatches.svg

<svg height="64" width="64" xmlns="http://www.w3.org/2000/svg"><path d="m5 44v12.8c0 2.3268 1.8661578 4.2 4.1842104 4.2h44.6315776c2.318053 0 3.681355-1.928608 4.18421-4.2v-12.8z" opacity=".2"/><path d="m9.1842104 4c-2.3180526 0-4.1842104 1.8732-4.1842104 4.2v35.14h52.999998v-35.14c0-2.3268-1.866157-4.2-4.18421-4.2z" fill="#ffbf3f"/><path d="m5 43v12.8c0 2.3268 1.8661578 4.2 4.1842104 4.2h44.6315776c2.318053 0 3.681355-1.928608 4.18421-4.2v-12.8z" fill="#e4e4e4"/><rect fill="#4f4f4f" height="3" opacity=".6" rx="1.5" width="18" x="8" y="53"/><rect fill="#4f4f4f" height="3" rx="1.5" width="36" x="8" y="47"/><path d="m9.1835938 4c-2.3180526 0-4.1835938 1.8724187-4.1835938 4.1992188v1c0-2.3268001 1.8655412-4.1992188 4.1835938-4.1992188h44.6328122c2.318053 0 4.183594 1.8724187 4.183594 4.1992188v-1c0-2.3268001-1.865541-4.1992188-4.183594-4.1992188z" fill="#fff" opacity=".2"/><path d="m5 43v1h53v-1z" fill="#fff" opacity=".2"/><path d="m5 42v1h53v-1z" opacity=".1"/></svg>

<svg xmlns="http://www.w3.org/2000/svg" width="64" height="64" version="1">
 <path d="M 5,44 5,56.8 C 5,59.1268 6.8661578,61 9.1842104,61 l 44.6315776,0 c 2.318053,0 3.681355,-1.928608 4.18421,-4.2 l 0,-12.8 z" style="opacity:0.2"/>
 <path d="M 9.1842104,4 C 6.8661578,4 5,5.8732 5,8.2 l 0,35.14 52.999998,0 0,-35.14 c 0,-2.3268 -1.866157,-4.2 -4.18421,-4.2 z" style="fill:#ffbf3f"/>
 <path style="fill:#cccccc" d="M 5,43 5,55.8 C 5,58.1268 6.8661578,60 9.1842104,60 l 44.6315776,0 c 2.318053,0 3.681355,-1.928608 4.18421,-4.2 l 0,-12.8 z"/>
 <rect width="18" height="3" x="8" y="53" rx="1.5" ry="1.5" style="opacity:0.6;fill:#4f4f4f"/>
 <rect style="fill:#4f4f4f" width="36" height="3" x="8" y="47" rx="1.5" ry="1.5"/>
 <path style="fill:#ffffff;opacity:0.2" d="M 9.1835938 4 C 6.8655412 4 5 5.8724187 5 8.1992188 L 5 9.1992188 C 5 6.8724187 6.8655412 5 9.1835938 5 L 53.816406 5 C 56.134459 5 58 6.8724187 58 9.1992188 L 58 8.1992188 C 58 5.8724187 56.134459 4 53.816406 4 L 9.1835938 4 z"/>
 <path style="fill:#ffffff;opacity:0.2" d="M 5 43 L 5 44 L 58 44 L 58 43 L 5 43 z"/>
 <path d="m 5,42 0,1 53,0 0,-1 -53,0 z" style="opacity:0.1"/>
</svg>
